!!!!SEGMENT: pl-wtm--r-246-m_moniuszko-stanislaw--bartek-i-cietrzew.krn
!!!cenid: 18xx:1652
!!!COM: Moniuszko, Stanisław
!!!COM-rismID: pe30008351
!!!CDT: 1819/05/05-1872/06/04
!!!CNT: Polish
!!!OTL: Bartek i cietrzew
!!!PDT:
!!!AGN: Secular
!!!SMS-siglum: PL-Wtm
!!!SMS-shelfmark: R 246/M
!!!SMS-shelfwork: W
!!!SMS-variant:
!!!SMS-altvar:
!!!NIFC-rismSourceID: 1001063782
!!!NIFC-islandoraID:
!!!URL-pdf-islandora:
!!!URL-scan:
!!!ONB-nifc:
!!!AIN: 1 forte 1 vox
!!!key:
**kern	**kern	**dynam	**kern	**text	**dynam
*part2	*part2	*part2	*part1	*part1	*part1
*staff3	*staff2	*	*staff1	*staff1	*
*Iforte	*Iempty	*	*Ivox	*	*
*I"[Fortepian]	*	*	*I"[Głos]	*	*
*I'pf	*	*	*I'V	*	*
*clefF4	*clefG2	*	*clefG2	*	*
*k[f#c#g#d#]	*k[f#c#g#d#]	*	*k[f#c#g#d#]	*	*
*E:	*E:	*	*E:	*	*
*M2/4	*M2/4	*	*M2/4	*	*
=1	=1	=1	=1	=1	=1
!!LO:TX:t=P:problem:all\right or left:global
*^	*^	*	*	*	*
!	!	!	!	!	!LO:TX:a:i:B:t=allegro scherzando.	!	!
!	!	!	!	!	!LO:TX:a:u:i:t=28. Bartek i Cietrzew.	!	!
8B/L|	8E\L	8g#/L|	8e\L	p	8g#/	W le-	.
8B/|	8E\	(16g#/L	8e\	.	16g#/LL	-sie	.
.	.	16a/JJ	.	.	16a/JJ	.	.
8B/|	8E\	8g#/L)	8e\	.	8g#/	ciet-	.
8A/J|	8E\J	8f#/J|	8d#\J	.	8f#/	-rzew	.
=2	=2	=2	=2	=2	=2	=2	=2
*v	*v	*	*	*	*	*	*
*	*v	*v	*	*	*	*
*^	*^	*	*	*	*
*	*2\right	*	*	*	*	*	*
*	*tremolo	*	*	*	*	*	*
8G#/L|	8E\L	8g#/L|	8e\L	.	8g#/	gdzieś	.
8B/|	8E\	(16g#/L	8e\	.	16g#/LL	tu-	.
.	.	16a/JJ	.	.	16a/JJ	.	.
8F#/|	8E\	8.b/L	8d#\	.	8.b/	-ku-	.
[8B/J|	8E\J	.	8d#\J	.	.	.	.
*	*Xtremolo	*	*	*	*	*	*
.	.	16a/Jk	.	.	16a/	-je,	.
*v	*v	*	*	*	*	*	*
=3	=3	=3	=3	=3	=3	=3
*	*v	*v	*	*	*	*
*^	*^	*	*	*	*
*	*tremolo	*	*	*	*	*	*
8B/L]|	8E\L	8g#/)	8e\	.	8g#/	w_karcz-	.
8B/|	8E\	(16g#/LL	8e\L	.	16g#/LL	-mie	.
.	.	16a/JJ	.	.	16a/JJ	.	.
8B/|	8E\	8g#/L)	8e\	.	8g#/	Bar-	.
8B/J|	8E\J	8f#/J|	8d#\J	.	8f#/	-tek	.
*	*Xtremolo	*	*	*	*	*	*
*v	*v	*	*	*	*	*	*
*	*v	*v	*	*	*	*
=4	=4	=4	=4	=4	=4
*^	*^	*	*	*	*
*	*tremolo	*	*	*	*	*	*
!	!	!	!	!	!LO:TX:a:u:i:t=J. Czeczota.	!	!
8G#/L|	8E\L	8g#/L	8e\L	.	8g#/	ba-	.
8B/|	8E\	(16g#/L	8e\	.	16g#/LL	-rasz-	.
.	.	16a/JJ	.	.	16a/JJ	.	.
8F#/|	8E\	8.b/L	8d#\	.	8.b/	-ku-	.
8B/J|	8E\J	.	8d#\J	.	.	.	.
*	*Xtremolo	*	*	*	*	*	*
.	.	16a/Jk)	.	.	16a/	-je,	.
*v	*v	*	*	*	*	*	*
!!LO:LB:g=original
=5	=5	=5	=5	=5	=5	=5
*	*v	*v	*	*	*	*
*^	*^	*	*	*	*
*tremolo	*	*	*	*	*	*	*
8B/L	8E\L|	8g#/L|	8e\L	.	8g#/	strze-	.
8B/	8E\|	(16g#/L	8e\	.	16g#/LL	-lec	.
.	.	16a#X/JJ	.	.	16a#X/JJ	.	.
8B/	8E\|	8g#/L)	8e\	.	8g#/	cie-	.
8B/J	8D#X\J|	8f#/J	8f#\J|	.	8f#/	-trze-	.
*Xtremolo	*	*	*	*	*	*	*
*v	*v	*	*	*	*	*	*
*	*v	*v	*	*	*	*
=6	=6	=6	=6	=6	=6
*^	*^	*	*	*	*
8B/L	8C#\L|	8g#/L|	8e\L	.	8g#/	-wia	.
(8c#/	8F#\|	(8a#X/J	8e\	.	8a#X/	za-	.
8B/)	8BB\|	8b/L)	8d#\	.	8.b/	-bi-	.
8B/J	8B\J	8f#/J|	8d#\J	.	.	.	.
.	.	.	.	.	16f#/	-ja,	.
=7	=7	=7	=7	=7	=7	=7	=7
*v	*v	*	*	*	*	*	*
*	*v	*v	*	*	*	*
*^	*^	*	*	*	*
*tremolo	*	*	*	*	*	*	*
8B/L	8E\L	8g#/L|	8e\L	.	8g#/	szyn-	.
8B/	8E\	(16g#/L	8e\J	.	16g#/LL	-karz	.
.	.	16a#X/JJ	.	.	16a#X/JJ	.	.
8B/	8E\	8g#/L)	8e\L	.	8g#/	gu-	.
8B/J	8D#\J	8f#/J|	8f#\J	.	8f#/	-bi	.
*Xtremolo	*	*	*	*	*	*	*
*v	*v	*	*	*	*	*	*
*	*v	*v	*	*	*	*
=8	=8	=8	=8	=8	=8
*^	*^	*	*	*	*
8B/L	8C#\L	8e/L 8f#	4ryy	.	8g#/	Bar-	.
8A#X/J	8F#\J	8e/J 8f#	.	.	8a#X/	-tło-	.
4B\	4BB\	(8f#/L	4d#^\	.	8.b/	-mi-	.
.	.	8b/J)	.	.	.	.	.
.	.	.	.	.	16b/	-ja;	.
*v	*v	*	*	*	*	*	*
*	*v	*v	*	*	*	*
!!LO:LB:g=original
=9	=9	=9	=9	=9	=9
!	!	!LO:DY:t=f.	!LO:TX:a:i:t=piu lento.	!	!LO:DY:b:t=f.
4C#/	((4g#^/ 4cc# 4ee	f	4cc#^\	Oj	f
8F#/L	8f#/L)) 8b 8dd#	.	8b\	Bar-	.
8FF#/J	8f#/J 8a#X 8cc#	.	8a#X\	-tek!	.
=10	=10	=10	=10	=10	=10
*	*^	*	*	*	*
8BB/|	16dd#/LL	8f#\	.	8b\	oj	.
.	16cc#/JJ	.	.	.	.	.
4B;\ 4d#	4b;/ 4f#	4ryy	.	4f#;/	ciet-	.
8r	8b/	8ryy	.	8b\	-rzew!	.
.	.	.	p	.	.	.
*	*v	*v	*	*	*	*
=11	=11	=11	=11	=11	=11
!	!	!	!	!	!LO:DY:a:t=p.
(4DD#/	((4c#^/ 4f# 4a	.	4cc#^\	oj	p
8BB/L)	8B/L)) 8e 8g#	.	8b\	Bar-	.
8BBB/J|	8B/J 8d# 8f#	.	8an\	-tek!	.
=12	=12	=12	=12	=12	=12
8EE/|	8B/ 8e 8g#|	.	16g#/LL	oj	.
.	.	.	16f#/JJ	.	.
4.E;\ 4.G#	4.B;/ 4.e	.	4e;/	ciet-	.
.	.	.	16e/	-rzew!..	.
.	.	.	16r;	.	.
!!LO:PB:g=original
==	==	==	==	==	==
*-	*-	*-	*-	*-	*-
!!!system-decoration: s1{(s2,s3)}
!!!RDF**kern: < = below
!!!RDF**kern: > = above
!!!RDF**kern: | = vertical stroke
!!!ENC: Marta Chmielewska
!!!END: 2021-04-16
!!!ENC: Tomasz Grochalski
!!!END: 2021-03-29
